X: 134
T:Shores of Lough Gowna
R:Jig
H:Dermot Diamond
H:Millown Malbay 1985
M:6/8
L:1/8
Q:3/8=120
K:D
|~B3 BAF|FEF DFA|BFF BAF|d2e fed|
BdB {d}BAF|FEF DFA|def geg|fdB BdA||
BAA BAF|FEF DFA|~B3 BAF|d2e fed|
BdB {d}BAF|FEF DFA|def geg|fdB BdA
|:def a2b|afb afe|dFA def|~g3 fdB|
def +A2a2+b|afb afe|def geg|fdB BFA:|
% D:\aaa\ABCcollections\a2.abc

